X:23
T:Harvest Home
M:4/4
L:1/8
R:hornpipe
K:D
|:"D"DAFA DAFA|"G"defe dcBA|"A"eAfA gAfA|"G"(3efe (3dcB "A"(3ABA (3GFE|
"D"DAFA DAFA|"G"defe dcBA|"A"eAfA gece|1 "D"d2f2 d4:|2 "D"d2f2 d2cd|
|:"A"eAA2 "D"fAA2|"G"gAfA "A"eAA2|eAfA gAfA|"G"(3efe (3dcB "A"(3ABA (3GFE|
"D"DAFA DAFA|"G"defe "A"dcBA|eAfA gece|1 "D"d2f2 d2cd:|2 "D"d2f2 d4||
